X:1257
T:Connolly's Ale
O:england
B:Joyce, P. W.; "Old Irish Folk Music and Songs"
W:On Saturday night you're as willing as I am
W:To take a full jorum of Connolly's ale.
R:song air
L:1/8
M:6/8
K:G
"Lively"\
D|GBB BAB|GBd def|gfe fdB|BAA A2 B|
GBB BAB|GBd def|gfe fdB|AGG G2||B|
def gfe|agf edB|gfe fdB|BAA A2 B|
GBB BAB|GBd def|gfe fdB|AGG G2||


